fs/tab_shield_dismiss_24_filled.svg

<svg viewBox="0 0 24 24" fill="none" xmlns="http://www.w3.org/2000/svg" height="1em" width="1em">
  <path d="M3 5.75C3 4.23122 4.23122 3 5.75 3H18.25C19.7688 3 21 4.23122 21 5.75V10.7375C20.3313 10.4919 19.6887 10.0678 19.0624 9.44032C19.042 9.41992 19.0212 9.40022 19 9.38122V5.75C19 5.33579 18.6642 5 18.25 5H5.75C5.33579 5 5 5.33579 5 5.75V18.25C5 18.6642 5.33579 19 5.75 19H12.7304C12.9422 19.4461 13.201 19.8664 13.508 20.2586C13.7138 20.5216 13.9387 20.7686 14.1818 21H5.75C4.23122 21 3 19.7688 3 18.25V5.75ZM18.3546 10.1468C19.5947 11.3891 20.9689 12 22.5 12C22.7455 12 22.9496 12.1769 22.9919 12.4101L23 12.5V15.5013C23 18.7196 21.3587 20.9075 18.1581 21.9743C18.0555 22.0086 17.9445 22.0086 17.8419 21.9743C14.7382 20.9398 13.1009 18.8511 13.0045 15.791L13 15.5013V12.5C13 12.2239 13.2239 12 13.5 12C15.0292 12 16.4042 11.389 17.6473 10.1464C17.8427 9.95105 18.1595 9.95123 18.3546 10.1468ZM15.9657 13.8386L15.8964 13.8964L15.8386 13.9657C15.7205 14.1362 15.7205 14.3638 15.8386 14.5343L15.8964 14.6036L17.293 16L15.8964 17.3964L15.8386 17.4657C15.7205 17.6362 15.7205 17.8638 15.8386 18.0343L15.8964 18.1036L15.9657 18.1614C16.1362 18.2795 16.3638 18.2795 16.5343 18.1614L16.6036 18.1036L18 16.707L19.3964 18.1036L19.4657 18.1614C19.6362 18.2795 19.8638 18.2795 20.0343 18.1614L20.1036 18.1036L20.1614 18.0343C20.2795 17.8638 20.2795 17.6362 20.1614 17.4657L20.1036 17.3964L18.707 16L20.1036 14.6036L20.1614 14.5343C20.2795 14.3638 20.2795 14.1362 20.1614 13.9657L20.1036 13.8964L20.0343 13.8386C19.8638 13.7205 19.6362 13.7205 19.4657 13.8386L19.3964 13.8964L18 15.293L16.6036 13.8964L16.5343 13.8386C16.3882 13.7373 16.2001 13.7229 16.0419 13.7952L15.9657 13.8386Z" fill="#212121"/>
</svg>

<svg viewBox="0 0 24 24" fill="none" xmlns="http://www.w3.org/2000/svg" height="1em" width="1em">
  <path d="M3 5.75A2.75 2.75 0 0 1 5.75 3h12.5A2.75 2.75 0 0 1 21 5.75v4.988c-.669-.246-1.311-.67-1.938-1.298-.02-.02-.04-.04-.062-.059V5.75a.75.75 0 0 0-.75-.75H5.75a.75.75 0 0 0-.75.75v12.5c0 .414.336.75.75.75h6.98a6.694 6.694 0 0 0 1.452 2H5.75A2.75 2.75 0 0 1 3 18.25V5.75Zm15.355 4.397C19.595 11.389 20.969 12 22.5 12a.5.5 0 0 1 .492.41l.008.09v3.001c0 3.219-1.641 5.406-4.842 6.473a.499.499 0 0 1-.316 0c-3.104-1.034-4.741-3.123-4.837-6.183l-.005-.29V12.5a.5.5 0 0 1 .5-.5c1.53 0 2.904-.611 4.147-1.854a.5.5 0 0 1 .708 0Zm-2.39 3.692-.069.057-.057.07a.5.5 0 0 0 0 .568l.057.07L17.293 16l-1.397 1.396-.057.07a.5.5 0 0 0 0 .568l.057.07.07.057a.5.5 0 0 0 .568 0l.07-.057L18 16.707l1.396 1.397.07.057a.5.5 0 0 0 .568 0l.07-.057.057-.07a.5.5 0 0 0 0-.568l-.057-.07L18.707 16l1.397-1.396.057-.07a.5.5 0 0 0 0-.568l-.057-.07-.07-.057a.5.5 0 0 0-.568 0l-.07.057L18 15.293l-1.396-1.397-.07-.057a.5.5 0 0 0-.492-.044l-.076.044Z" fill="#212121"/>
</svg>
